src/images/icon-sound.svg

<svg width="27" height="24" viewBox="0 0 27 24" fill="none" xmlns="http://www.w3.org/2000/svg">
<path d="M24.3627 18.8252L21.078 16.8997C21.0241 16.8684 20.9645 16.8481 20.9028 16.8401C20.8412 16.8321 20.7785 16.8365 20.7185 16.8531C20.6585 16.8696 20.6023 16.898 20.5531 16.9366C20.5039 16.9752 20.4627 17.0233 20.4318 17.0781L19.8392 18.1209C19.7082 18.3506 19.7856 18.6469 20.0119 18.7798L23.2966 20.7053C23.3506 20.7367 23.4101 20.7569 23.4718 20.7649C23.5335 20.7729 23.5961 20.7685 23.6561 20.752C23.7161 20.7354 23.7723 20.707 23.8215 20.6684C23.8707 20.6298 23.9119 20.5817 23.9428 20.527L24.5354 19.4841C24.6665 19.2544 24.5861 18.9582 24.3627 18.8252ZM20.4288 6.92191C20.4597 6.9767 20.5009 7.02477 20.5501 7.06338C20.5993 7.10199 20.6555 7.13038 20.7155 7.14694C20.7756 7.1635 20.8382 7.1679 20.8999 7.15989C20.9616 7.15188 21.0211 7.13162 21.075 7.10025L24.3597 5.17481C24.5861 5.04181 24.6635 4.74559 24.5325 4.51587L23.9428 3.47607C23.9119 3.42129 23.8707 3.37322 23.8215 3.33461C23.7723 3.296 23.7161 3.2676 23.6561 3.25104C23.5961 3.23448 23.5335 3.23008 23.4718 3.23809C23.4101 3.2461 23.3506 3.26637 23.2966 3.29773L20.0119 5.22317C19.9032 5.28753 19.8239 5.39298 19.7916 5.51646C19.7592 5.63994 19.7763 5.77141 19.8392 5.88212L20.4288 6.92191ZM25.6105 10.9118H21.7987C21.5366 10.9118 21.3222 11.1295 21.3222 11.3955V12.6045C21.3222 12.8705 21.5366 13.0882 21.7987 13.0882H25.6105C25.8725 13.0882 26.087 12.8705 26.087 12.6045V11.3955C26.087 11.1295 25.8725 10.9118 25.6105 10.9118ZM16.4354 0C16.2597 0 16.081 0.0483628 15.9172 0.160202L5.36033 7.16373H0.476474C0.214413 7.16373 0 7.38136 0 7.64736V16.3526C0 16.6186 0.214413 16.8363 0.476474 16.8363H5.36033L15.9172 23.8398C16.081 23.9486 16.2627 24 16.4354 24C16.9327 24 17.3913 23.598 17.3913 23.0297V0.970277C17.3913 0.402015 16.9327 0 16.4354 0Z" fill="white"/>
</svg>

<svg xmlns="http://www.w3.org/2000/svg" width="27" height="24" fill="none" viewBox="0 0 27 24"><path fill="#fff" d="M24.363 18.825L21.078 16.9a.47.47 0 0 0-.646.178l-.593 1.043a.487.487 0 0 0 .173.659l3.285 1.925a.468.468 0 0 0 .646-.178l.592-1.043a.49.49 0 0 0-.172-.659zM20.429 6.922a.479.479 0 0 0 .287.225.467.467 0 0 0 .359-.047l3.285-1.925a.487.487 0 0 0 .172-.66l-.59-1.039a.479.479 0 0 0-.286-.225.467.467 0 0 0-.36.047l-3.284 1.925a.49.49 0 0 0-.173.659l.59 1.04zm5.181 3.99H21.8a.482.482 0 0 0-.477.483v1.21c0 .265.215.483.477.483h3.811a.482.482 0 0 0 .477-.483v-1.21a.482.482 0 0 0-.477-.483zM16.435 0a.908.908 0 0 0-.518.16L5.36 7.164H.476A.482.482 0 0 0 0 7.647v8.706a.48.48 0 0 0 .476.483H5.36l10.557 7.004a.94.94 0 0 0 .518.16.962.962 0 0 0 .956-.97V.97a.962.962 0 0 0-.956-.97z"/></svg>
